X:1
T:Monsey Chapel, 77.77 D
T:Monsey Chapel, 77.77 D
T:Dick L. Van Halsema, 1952
T:Public Domain Courtesy of the Cyber Hymnal™
C:Dick L. Van Halsema, 1952
Z:Public Domain
Z:Courtesy of the Cyber Hymnal™
%%score ( 1 2 ) ( 3 4 )
L:1/8
Q:1/4=112
M:4/4
K:F
V:1 treble 
V:2 treble 
V:3 bass 
V:4 bass 
V:1
 [CF]2 [CF]2 [CF]2 C2 x | [CF]2 [CG]2 [CA]4 | [Fc]2 [Ec]2 [Fc]2 [CF]2 | [FA]2 [DG]2 [EG]4 | %4
 [CF]2 [CF]2 [CF]2 C2 x2 | [FA]2 [GB]2 [Ac]4 | [D=B]2 [DA]2 [EG]2 [Fc]2 | [Dc]2 =B2 [Ec]4 | %8
 [DB]2 [EB]2 [FA]2 [CA]2 | [Dd]2 [Ed]2 c4 | [DB]2 [CB]2 [GA]2 A2 | [DG]2 G2 [^CA]4 | %12
 [EF]2 [DF]2 [FG]2 [EG]2 | [FA]2 [_EA]2 [DB]4 | [Fc]2 [Fd]2 [Fc]2 [B,E]2 | G3 (z F) F4 |] %16
V:2
 x6 C2 x | x8 | x8 | x8 | x6 C2 x2 | x8 | x8 | x2 (GF) x4 | x8 | x4 G2 F2 | x6 (FE) | x2 (ED) x4 | %12
 x8 | x8 | x8 | (FD) (E2 F4) x |] %16
V:3
 [F,A,]2 [F,A,]2 A,2 (z B,,) x | [A,,F,]2 [G,,E,]2 [F,,F,]4 | [F,A,]2 [G,B,]2 [A,C]2 [F,A,]2 | %3
 [D,A,]2 [G,=B,]2 [C,C]4 | [F,,A,]2 [A,,A,]2 A,2 z x3 | [C,C]2 [C,C]2 [F,C]4 | %6
 G,2 (z [E,C]2) [A,C]2 x | [F,A,]2 G,2 [C,G,]4 | [C,G,]2 [C,G,]2 [C,F,]2 [C,F,]2 | %9
 [B,,F,]2 [B,,G,]2 [A,,A,]4 | [G,,D,]2 [G,,E,]2 [F,,F,]2 [F,,F,]2 | [B,,F,]2 [B,,D,]2 [A,,E,]4 | %12
 [D,A,]2 [D,A,]2 [C,C]2 [C,C]2 | [F,C]2 [F,A,]2 [B,,F,]4 | [A,,F,]2 [B,,B,]2 [C,A,]2 [C,A,]2 | %15
 [C,C]2 [C,B,]2 [F,A,]4 x |] %16
V:4
 x4 C,3 E,2 | x8 | x8 | x8 | x4 C,3 (A,2 C,) | x8 | G,3 (=B,2 F,) x2 | x2 G,2 x4 | x8 | x8 | x8 | %11
 x8 | x8 | x8 | x8 | x9 |] %16

